X:0203
T:Behind the Bush in the Garden.
M:6/8
L:1/8
Q:3/8=112
I: || ::
Z:Jack Campin * www.campin.me.uk * 2009
K:G
(d/c/)   |B2G (B/c/d).B|A2F (A/B/c).A|B2G (B/c/d).B|d3 g2
(d/c/)   |B2G (B/c/d).B|A2G  FED     |G2c  B/c/dB  |G3 G2||
 d/e//f//|gag  fgf     |e2d  B3      |gag  f2g     |a3 d2
 c/B/    |c2a  B2g     |ABG  FED     |GAB  cAF     |G3 G2:|

